X:52
T:Ash Plant, The
C:Traditional
M:C|
R:reel
K:Edor
BE E2 BAGA | BE E2 GFGA | B2 BA (3(Bcd) ef | gedB AGFA :|
B2 eB fBeB | B2 fe BAGA | B2 eB f2fe | efed BAGA |
B2 eB fBeB | B2 fe BAGA | (3(Bcd) ef g2ga | gedB AGFA |]

